configs/network-icons/tangible-short.svg

<svg width="30" height="30" viewBox="0 0 30 30" fill="none" xmlns="http://www.w3.org/2000/svg">
<g clip-path="url(#clip0_11035_1037)">
<path d="M15 30C23.2843 30 30 23.2843 30 15C30 6.71573 23.2843 0 15 0C6.71573 0 0 6.71573 0 15C0 23.2843 6.71573 30 15 30Z" fill="#04111D"/>
<path fill-rule="evenodd" clip-rule="evenodd" d="M17.7214 14.5615C17.393 16.0087 16.7022 17.3361 15.7067 18.4397C15.449 18.7253 15.4534 19.1689 15.7635 19.3985C15.9017 19.5006 16.0427 19.5987 16.1862 19.6927C16.1995 19.7015 16.2191 19.7012 16.229 19.6887L16.2333 19.6839C17.5239 18.4071 18.4398 16.8163 18.8774 15.083C19.0024 14.5857 19.0923 14.0667 19.1384 13.5478C19.1656 13.2494 19.1792 12.9482 19.1792 12.6578C19.1792 9.49582 17.6371 6.49515 15.0559 4.62916L15.0423 4.6184C15.0162 4.59414 14.9755 4.5938 14.949 4.61761L14.9362 4.62916C12.3523 6.49515 10.8128 9.49582 10.8128 12.6578C10.8128 12.9945 11.1676 13.2067 11.4888 13.0921C11.5991 13.0527 11.7102 13.0151 11.8217 12.9792C11.9625 12.934 12.0558 12.8038 12.0558 12.6578C12.0558 10.2352 13.0921 7.90138 14.8982 6.25317C14.9535 6.20301 15.0386 6.20301 15.0939 6.25317C16.9 7.90138 17.9335 10.2352 17.9335 12.6578C17.9335 12.7681 17.9308 12.8863 17.9254 13.0181C17.9036 13.537 17.8356 14.056 17.7214 14.5615ZM8.28092 15.3135C6.43138 16.9536 5.26725 19.204 5.00069 21.6455C4.9958 21.6858 5.01709 21.7249 5.05395 21.743L5.06325 21.7476C6.3525 22.3096 7.7179 22.5946 9.12682 22.5946C10.8664 22.5946 12.5398 22.1626 14.0285 21.3395C14.3889 21.1402 14.4021 20.6469 14.091 20.3786C13.8861 20.2018 13.5874 20.1703 13.3487 20.2996C12.0583 20.9977 10.6093 21.3658 9.12682 21.3658C8.26188 21.3658 7.40782 21.2421 6.5837 20.9948L6.45586 20.9571L6.44398 20.9537C6.40323 20.942 6.37867 20.9011 6.38786 20.8603L6.41778 20.7312C6.99712 18.2576 8.63451 16.1631 10.9084 14.9881C11.3762 14.7461 11.8685 14.5444 12.3717 14.3912C13.2203 14.1304 14.1043 13.9986 14.9991 13.9986C15.5989 13.9986 16.193 14.0571 16.7738 14.174C17.1547 14.2507 17.543 14.0247 17.588 13.6442C17.6244 13.3366 17.4183 13.0533 17.1111 12.988C16.4179 12.8409 15.7111 12.7671 14.9991 12.7671C14.0689 12.7671 13.1442 12.8935 12.252 13.1436C11.7461 13.2862 11.2484 13.4689 10.7724 13.6867C9.86391 14.1034 9.02619 14.6493 8.28092 15.3135ZM24.9389 21.7504C23.6496 22.315 22.2815 22.6 20.8726 22.6C18.781 22.6 16.7791 21.9735 15.0819 20.7905C14.6575 20.492 14.2469 20.156 13.8661 19.7903L13.8389 19.7634C13.8225 19.7454 13.8047 19.7286 13.7875 19.7121C13.7791 19.704 13.7707 19.6961 13.7627 19.6881C12.6257 18.5641 11.781 17.1968 11.2959 15.7032C11.2004 15.409 11.3442 15.0927 11.6322 14.9709C11.9909 14.819 12.3873 15.0386 12.5099 15.4039C12.9775 16.7958 13.7929 18.0477 14.9023 19.059C15.2886 19.4111 15.7102 19.7338 16.1562 20.0134C17.5651 20.9007 19.1971 21.3713 20.8726 21.3713C21.7675 21.3713 22.6515 21.2395 23.5 20.976C23.5723 20.9532 23.6148 20.8796 23.598 20.8067C23.0737 18.4858 21.6236 16.4978 19.5848 15.2717C19.355 15.1335 19.234 14.8713 19.2846 14.6108C19.3622 14.2117 19.8008 13.9705 20.1546 14.1791C20.7104 14.5071 21.2336 14.8882 21.7184 15.3189C23.568 16.959 24.7321 19.2068 24.9987 21.6509L24.9995 21.6576C25.0039 21.6965 24.9812 21.7334 24.9443 21.7477L24.9389 21.7504Z" fill="white"/>
</g>
<defs>
<clipPath id="clip0_11035_1037">
<rect width="30" height="30" fill="white"/>
</clipPath>
</defs>
</svg>

<svg xmlns="http://www.w3.org/2000/svg" fill="none" viewBox="0 0 30 30">
  <g clip-path="url(#tangible-short_svg__a)">
    <path fill="#04111D" d="M15 30c8.284 0 15-6.716 15-15 0-8.284-6.716-15-15-15C6.716 0 0 6.716 0 15c0 8.284 6.716 15 15 15Z"/>
    <path fill="#fff" fill-rule="evenodd" d="M17.721 14.562a8.625 8.625 0 0 1-2.014 3.878c-.258.285-.254.729.056.958.139.103.28.2.423.295.014.008.033.008.043-.004l.004-.005a9.888 9.888 0 0 0 2.644-4.601 9.945 9.945 0 0 0 .302-2.425c0-3.162-1.542-6.163-4.123-8.029l-.014-.01a.07.07 0 0 0-.093-.001l-.013.011a9.936 9.936 0 0 0-4.123 8.029c0 .337.355.549.676.434.11-.04.221-.077.333-.113a.337.337 0 0 0 .234-.321 8.697 8.697 0 0 1 2.842-6.405c.056-.05.14-.05.196 0a8.695 8.695 0 0 1 2.831 6.765 8.671 8.671 0 0 1-.204 1.543Zm-9.44.752A9.887 9.887 0 0 0 5 21.645c-.005.04.016.08.053.098l.01.005c1.288.562 2.654.847 4.063.847 1.74 0 3.413-.432 4.901-1.255.36-.2.374-.693.063-.961a.66.66 0 0 0-.742-.08 8.867 8.867 0 0 1-4.222 1.067 8.833 8.833 0 0 1-2.543-.371l-.128-.038-.012-.003a.08.08 0 0 1-.056-.094l.03-.129a8.699 8.699 0 0 1 4.49-5.743 8.935 8.935 0 0 1 4.09-.99c.6 0 1.195.06 1.776.176.38.077.769-.15.814-.53a.6.6 0 0 0-.477-.656 10.18 10.18 0 0 0-6.339.699 10.01 10.01 0 0 0-2.491 1.626Zm16.658 6.436a10.07 10.07 0 0 1-4.066.85 10.074 10.074 0 0 1-7.007-2.81l-.027-.027a.813.813 0 0 0-.052-.05l-.024-.025a9.917 9.917 0 0 1-2.467-3.985.594.594 0 0 1 .336-.732c.359-.152.755.068.878.433a8.673 8.673 0 0 0 2.392 3.655 8.837 8.837 0 0 0 5.97 2.312c.895 0 1.78-.131 2.628-.395a.144.144 0 0 0 .098-.17 8.688 8.688 0 0 0-4.013-5.534.632.632 0 0 1-.3-.661c.077-.4.516-.64.87-.432.555.328 1.079.71 1.563 1.14a9.88 9.88 0 0 1 3.28 6.332l.002.007a.086.086 0 0 1-.056.09l-.005.002Z" clip-rule="evenodd"/>
  </g>
  <defs>
    <clipPath id="tangible-short_svg__a">
      <path fill="#fff" d="M0 0h30v30H0z"/>
    </clipPath>
  </defs>
</svg>
